Adwaita++-Light/panel/24/discord-tray.svg

<svg height="24" width="24" xmlns="http://www.w3.org/2000/svg">
  <path d="m10.175781 6.0000002s-1.9804458-.04304-4.0781248 1.4980469c-2.097678 1.541083-3.0976562 4.7309179-3.0976562 9.3261719 0 0 2.2239914 2.074982 5.4433594 2.175781 0 0 .5395465-.634246.9765625-1.181641-1.849982-.547394-2.5507813-2.185547-2.5507813-2.185547 1.7045245.952865 2.8633264 1.350612 4.6308594 1.367188 1.767533-.01658 3.926335-.414323 5.630859-1.367188 0 0-.700799 1.638153-2.550781 2.185547.437016.547395.976563 1.181641.976563 1.181641 3.219368-.100799 5.443359-2.175781 5.443359-2.175781 0-4.595254-.999978-7.7850889-3.097656-9.3261719-2.097679-1.541087-4.078125-1.4980469-4.078125-1.4980469l-.146485.171875c2.622073.734693 3.816407 2.3730469 3.816407 2.3730469s-.320389-.1718468-.859375-.4023438c-1.634798-.7847672-3.634723-1.1426096-5.134766-1.1425781-1.500043-.0000315-2.4999666.3578109-4.1347656 1.1425781-.5389855.230497-.859375.4023438-.859375.4023438s1.1943322-1.6383539 3.8164066-2.3730469zm-.675781 5.9999998c.838151 0 1.5146.668208 1.5 1.5 0 .831792-.661849 1.5-1.5 1.5-.823442 0-1.5-.668208-1.5-1.5s.661868-1.5 1.5-1.5zm5 0c.838132 0 1.5.668208 1.5 1.5s-.676558 1.5-1.5 1.5c-.838151 0-1.5-.668208-1.5-1.5-.0146-.831792.661849-1.5 1.5-1.5z" fill="#444"/>
</svg>

<svg xmlns="http://www.w3.org/2000/svg" width="24" height="24" version="1.1">
 <defs>
  <style id="current-color-scheme" type="text/css">
   .ColorScheme-Text { color:#444444; } .ColorScheme-Highlight { color:#4285f4; }
  </style>
 </defs>
 <path style="fill:currentColor" class="ColorScheme-Text" d="m 10.175781,6.0000002 c 0,0 -1.9804458,-0.04304 -4.0781248,1.4980469 C 3.9999782,9.0391301 3,12.228965 3,16.824219 c 0,0 2.2239914,2.074982 5.4433594,2.175781 0,0 0.5395465,-0.634246 0.9765625,-1.181641 C 7.5699399,17.270965 6.8691406,15.632812 6.8691406,15.632812 8.5736651,16.585677 9.732467,16.983424 11.5,17 c 1.767533,-0.01658 3.926335,-0.414323 5.630859,-1.367188 0,0 -0.700799,1.638153 -2.550781,2.185547 C 15.017094,18.365754 15.556641,19 15.556641,19 18.776009,18.899201 21,16.824219 21,16.824219 21,12.228965 20.000022,9.0391301 17.902344,7.4980471 15.804665,5.9569601 13.824219,6.0000002 13.824219,6.0000002 l -0.146485,0.171875 c 2.622073,0.734693 3.816407,2.3730469 3.816407,2.3730469 0,0 -0.320389,-0.1718468 -0.859375,-0.4023438 C 14.999968,7.3578111 13.000043,6.9999687 11.5,7.0000002 9.999957,6.9999687 9.0000334,7.3578111 7.3652344,8.1425783 c -0.5389855,0.230497 -0.859375,0.4023438 -0.859375,0.4023438 0,0 1.1943322,-1.6383539 3.8164066,-2.3730469 z M 9.5,12 c 0.838151,0 1.5146,0.668208 1.5,1.5 C 11,14.331792 10.338151,15 9.5,15 8.676558,15 8,14.331792 8,13.5 8,12.668208 8.661868,12 9.5,12 Z m 5,0 C 15.338132,12 16,12.668208 16,13.5 16,14.331792 15.323442,15 14.5,15 13.661849,15 13,14.331792 13,13.5 12.9854,12.668208 13.661849,12 14.5,12 Z"/>
</svg>
